X:1
T:Roll the Stone Away
T:Roll the Stone Away
T:E. E. Pickard
T:E. E. Pickard, possibly 19th Century
T:Public Domain Courtesy of the Cyber Hymnal™
C:E. E. Pickard
Z:Public Domain
Z:Courtesy of the Cyber Hymnal™
%%score 1 ( 2 3 )
L:1/8
Q:1/4=160
M:3/4
K:D
V:1 treble 
V:2 bass 
V:3 bass 
V:1
 [DF]4 [DF]2 | [DF]4 [DG]2 | [CE]4 [CE]2 | [CE]6 | [EG]4 [EG]2 | [EG]4 [EA]2 | [DF]6- | [DF]6 | %8
w: 1.~Who shall|roll the|stone a-|way?|Who shall|break the|seal?||
w: 2.~Who can|lead the|wea- ry|soul|To the|Sav- ior’s|cross?||
w: 3.~Who can|ban- ish|un- be-|lief,|As in|prayer we|bow?||
w: 4.~Who can|cleanse our|sins a-|way,|By His|pre- cious|blood?||
w: 5.~Who will|come to|Je- sus|now?|Now, this|ve- ry|hour?||
 [GB]4 [GB]2 | [FA]4 [FA]2 | [EG]4 [EG]2 | [DF]6 | [DE]4 [DE]2 | [DF]4 [DE]2 | ([CE]6 | %15
w: Who can|drive the|clouds a-|way?|Wound- ed|hearts to|heal?|
w: Who can|make us|joy- ful-|ly|Count all|else but|loss?|
w: Who can|ope the|si- lent|lips?|God can—|here and|now!|
w: On- ly|One these|things can|do—|Christ, the|Son of|God!|
w: He will|save you|will- ing-|ly,|Keep you|by His|power.|
 !fermata![GA]6) ||"^Refrain" [Fd]4 [FA]2 | [Gc]4 [GB]2 | [FA]4 [EG]2 [DF]6 | [EG]4 [EB]2 | %20
w: |||||
w: |||||
w: |On- ly|God can|lift the weight|That keeps|
w: |||||
w: |||||
 [Ge]4 [^Gd]2 | [Ac]4 [^GB]2 | [^^FA]6 |!<(! [Fd]4 [Fd]2 | [Ec]4 [EG]2 | [Gc]4 [GB]2!<)! | [FA]6 | %27
w: |||||||
w: |||||||
w: fast the|glo- ry|gate!|Ev- en|now, Lord,|while we|pray,|
w: |||||||
w: |||||||
 [GB]4 [Ge]2 | [FA]4 [Fd]2 | [Gd]4 [Gc]2 | [Fd]6 |] x6 |] %32
w: |||||
w: |||||
w: Thou canst|roll the|stones a-|way!||
w: |||||
w: |||||
V:2
 [D,A,]4 [D,A,]2 | [D,A,]4 [D,A,]2 | [A,,A,]4 [A,,A,]2 | [A,,A,]6 | [A,,A,]4 [B,,A,]2 | %5
 [C,A,]4 [A,,A,]2 | [D,A,]6- | [D,A,]6 | [G,D]4 [G,D]2 | [F,D]4 [F,D]2 | [E,A,]4 [A,,A,]2 | %11
 [D,A,]6 | [G,B,]4 [G,B,]2 | [^G,B,]4 [G,B,]2 | A,6 | !fermata![A,C]6 || [D,A,]4 [D,A,]2 | %17
 [D,B,]4 [D,C]2 | [D,D]4 [D,D]2 x6 | [D,D]6 | [A,C]4 [A,C]2 | [A,C]4 [E,E]2 | [E,E]4 [E,D]2 | %23
 [A,C]6 | [D,A,]4 [D,A,]2 | [A,,A,]4 [A,,A,]2 | [A,,A,]4 [A,,A,]2 | [D,A,]6 | [G,C]4 [G,C]2 | %29
 [F,D]4 [D,D]2 | [G,B,]4 [A,C]2 |] [D,D]6 |] %32
V:3
 x6 | x6 | x6 | x6 | x6 | x6 | x6 | x6 | x6 | x6 | x6 | x6 | x6 | x6 | A,6- | x6 || x6 | x6 | x12 | %19
 x6 | x6 | x6 | x6 | x6 | x6 | x6 | x6 | x6 | x6 | x6 | x6 |] x6 |] %32

